X:410
T:Marine's March as a Duett.2voices. RH.410, The
R:march
B:Rev.R.Harrison's MS,c1815,Cumbria
O:England
A:Temple Sowerby,Cumbria
Z:vmp.Simon Wilson. Review PJH, 2008.
V:1 name="primo"
V:2 name="secundo"
M:C
L:1/8
Q:2/4=75
K:G
[V:1] g4 d4|BBdBG4|c4 A4|FFAF D2ec|
[V:2] GBdB Ggbg|ddfd gdBG|DFAF Acec|dAFA DcBA|
%
[V:1] B2B2 B2dc|c6 BA|A2A2 A2cB|B6 dc|
[V:2] G2G2 GdBA|AFDF AFGF|FDFD FDAG|Ggdg G2BA|
%
[V:1] B2B2 B2B2|c2ec A2c2|B2dB G2dd|g2d2 c2B2|
[V:2] Ggdg dgBd|cAcA FdAF|GEBG dGBG|dBGB A2G2|
%
[V:1] A4 A2D2|A2D2 c3B|A4 B2G2|B2G2 d3c|
[V:2] DFAF D2z2|FDAF AFDG|FDFD G2D2|G2D2 BGAF|
%
[V:1] B4 d2d2|e2c2 g2e2|d2B2 g2e2|d/g/f/g/ =f/e/d/c/ BAz2|g2g>g g4|]
[V:2] G2g2 BGBG|cGcG ecAc|BGBG ecAc|B/e/^d/e/ =d/c/B/A/ GDFD|GBdg G4|]

